poi/svg/2604.svg

<?xml version="1.0" encoding="UTF-8" standalone="no"?>
<svg
   xmlns:dc="http://purl.org/dc/elements/1.1/"
   xmlns:cc="http://creativecommons.org/ns#"
   xmlns:rdf="http://www.w3.org/1999/02/22-rdf-syntax-ns#"
   xmlns:svg="http://www.w3.org/2000/svg"
   xmlns="http://www.w3.org/2000/svg"
   xmlns:sodipodi="http://sodipodi.sourceforge.net/DTD/sodipodi-0.dtd"
   xmlns:inkscape="http://www.inkscape.org/namespaces/inkscape"
   inkscape:version="1.0 (4035a4fb49, 2020-05-01)"
   sodipodi:docname="2604.svg"
   id="svg20"
   version="1.2"
   viewBox="0 0 42.519639 42.519639"
   height="14.999999mm"
   width="14.999999mm">
  <metadata
     id="metadata24">
    <rdf:RDF>
      <cc:Work
         rdf:about="">
        <dc:format>image/svg+xml</dc:format>
        <dc:type
           rdf:resource="http://purl.org/dc/dcmitype/StillImage" />
        <dc:title>Qt SVG Document</dc:title>
      </cc:Work>
    </rdf:RDF>
  </metadata>
  <sodipodi:namedview
     inkscape:current-layer="svg20"
     inkscape:window-maximized="0"
     inkscape:window-y="0"
     inkscape:window-x="0"
     inkscape:cy="28.346482"
     inkscape:cx="28.346482"
     inkscape:zoom="5.8410537"
     showgrid="false"
     id="namedview22"
     inkscape:window-height="480"
     inkscape:window-width="1034"
     inkscape:pageshadow="2"
     inkscape:pageopacity="0"
     guidetolerance="10"
     gridtolerance="10"
     objecttolerance="10"
     borderopacity="1"
     bordercolor="#666666"
     pagecolor="#ffffff" />
  <title
     id="title2">Qt SVG Document</title>
  <desc
     id="desc4">Generated with Qt</desc>
  <defs
     id="defs6" />
  <g
     transform="translate(5.25984,5.25984)"
     id="g18"
     stroke-linejoin="bevel"
     stroke-linecap="square"
     fill-rule="evenodd"
     stroke-width="1"
     stroke="#000000"
     fill="none">
    <g
       id="g10"
       font-style="normal"
       font-weight="400"
       font-size="7.8px"
       font-family="'MS Shell Dlg 2'"
       stroke="none"
       fill-opacity="1"
       fill="#6fa56c">
      <path
         id="path8"
         d="M 37.2598,16 C 37.2598,27.7415 27.7415,37.2598 16,37.2598 4.25851,37.2598 -5.25984,27.7415 -5.25984,16 -5.25984,4.25851 4.25851,-5.25984 16,-5.25984 27.7415,-5.25984 37.2598,4.25851 37.2598,16"
         fill-rule="evenodd"
         vector-effect="non-scaling-stroke" />
    </g>
    <g
       id="g14"
       font-style="normal"
       font-weight="400"
       font-size="7.8px"
       font-family="'MS Shell Dlg 2'"
       transform="translate(16,13.1654)"
       stroke="none"
       fill-opacity="0.94902"
       fill="#ffffff">
      <path
         id="path12"
         d="M 7.31885,10.6816 C 7.17887,10.8776 7.00741,11.0701 6.80444,11.259 6.60148,11.448 6.38802,11.6125 6.16406,11.7524 L 3.22461,8.83398 C 3.02865,8.63802 2.79419,8.51904 2.52124,8.47705 2.24829,8.43506 1.90535,8.41406 1.49243,8.41406 c -0.41292,0 -0.920327,0 -1.5222152,0 C -0.631673,8.41406 -1.36654,8.33708 -2.23438,8.18311 -3.52214,8.04313 -4.81689,7.6652 -6.11865,7.04932 -7.42041,6.43343 -8.5472,5.64958 -9.49902,4.69775 -10.3249,3.87191 -10.9618,2.97957 -11.4097,2.02075 c -0.4479,-0.95882 -0.7068,-1.917641 -0.7768,-2.876463 -0.07,-0.958817 0.0525,-1.875647 0.3674,-2.750487 0.3149,-0.87484 0.8154,-1.65519 1.5012,-2.34107 0.57392,-0.57389 1.2423,-1.01131 2.00516,-1.31225 0.76285,-0.30095 1.5677,-0.45842 2.41455,-0.47241 0.84684,-0.014 1.69718,0.12247 2.55102,0.40942 0.85384,0.28695 1.67269,0.71037 2.456545,1.27026 -0.433915,0.29395 -0.762855,0.59489 -0.986815,0.90284 -0.69987,-0.44792 -1.42074,-0.79086 -2.1626,-1.02881 v 0.04199 1.17578 h 2.07861 c -0.06998,0.05599 -0.10498,0.09798 -0.10498,0.12598 0,0.02799 -0.02799,0.06998 -0.08398,0.12597 h -1.88965 v 2.45655 h 1.5957 v 0.16797 h -1.5957 v 2.498531 h 2.49854 v -0.818848 c 0.05599,0 0.13997,0.05599 0.25195,0.167969 v 0.650879 h 1.091796 C -0.0857747,0.47054 0.012207,0.512533 0.0961914,0.540527 0.180176,0.568522 0.292155,0.610514 0.432129,0.666504 H -1.28955 V 3.16504 H 1.16699 V 0.666504 H 1.33496 V 3.16504 H 2.51074 C 2.51074,2.2972 2.36377,1.43636 2.06982,0.58252 H 2.15381 C 2.58773,0.414551 2.97266,0.211589 3.30859,-0.0263672 3.46257,0.379557 3.56055,0.760986 3.60254,1.11792 3.64453,1.47485 3.69352,1.84229 3.74951,2.22021 3.86149,3.07406 3.91748,3.80892 3.91748,4.4248 c 0,0.61589 0,1.14079 0,1.57471 0,0.43392 0.028,0.78736 0.08398,1.0603 0.05599,0.27295 0.18897,0.50741 0.39893,0.70337 L 7.31885,10.6816 M -1.37354,5.78955 H 1.16699 V 3.29102 H -1.28955 L -1.37354,5.78955 M -4.04004,3.16504 H -1.5415 V 0.666504 L -4.04004,0.58252 v 2.58252 m 0,2.62451 H -1.5415 V 3.29102 H -4.04004 V 5.78955 M -4.20801,-6.22021 C -5.03385,-6.44417 -5.8667,-6.48617 -6.70654,-6.34619 v 1.38574 h 2.49853 v -1.25976 m -5.12304,6.634761 h 2.49853 V -2.08398 H -9.33105 V 0.414551 M -6.83252,-2.25195 V -4.7085 h -2.49853 v 2.45655 h 2.49853 m 0,-2.7085 V -6.3042 c -1.00781,0.16797 -1.84066,0.58789 -2.49853,1.25977 v 0.08398 h 2.49853 m 2.62451,5.375001 V -2.08398 h -2.49853 v 2.498531 h 2.49853 M -6.70654,0.58252 v 2.49853 l 2.49853,0.08399 V 0.666504 L -6.70654,0.58252 m 2.49853,-2.83447 V -4.7085 h -2.49853 v 2.45655 h 2.49853 m -2.49853,5.54297 v 1.97363 c 0.37793,0.22396 0.69287,0.39892 0.94482,0.5249 h 1.55371 V 3.29102 h -2.49853 m 1.30175,2.6665 c 0.22396,0.08398 0.43042,0.16797 0.61939,0.25195 0.18896,0.08399 0.38143,0.15397 0.57739,0.20996 V 5.95752 H -5.40479 M -9.66699,-4.7085 c -0.60191,0.68588 -0.97281,1.50472 -1.11281,2.45655 h 1.19679 V -4.7085 h -0.08398 m -1.15481,2.62452 c -0.084,0.85384 0,1.714677 0.252,2.582515 V 0.414551 h 0.98679 V -2.08398 h -1.23879 m 0.294,2.6665 c 0.3779,1.17578 1.02178,2.24658 1.93161,3.2124 0.29394,0.26595 0.58439,0.51441 0.87134,0.74536 0.28694,0.23096 0.58439,0.44442 0.89233,0.64038 V 5.13867 3.29102 h -2.1416 C -9.0861,3.23503 -9.14209,3.16504 -9.14209,3.08105 h 2.30957 V 0.58252 H -9.33105 V 2.80811 L -9.58301,2.55615 V 0.58252 h -0.94479 m 6.48776,5.87891 c 0.43392,0.15397 0.85734,0.26595 1.27026,0.33593 0.41293,0.06999 0.82235,0.10498 1.22828,0.10498 V 5.95752 H -4.04004 V 6.46143 M 1.50293,5.95752 C 2.07682,5.32764 2.39176,4.4388 2.44775,3.29102 H 1.33496 v 2.49853 h 0.27295 c 0,0.05599 -0.0175,0.08399 -0.05249,0.08399 -0.03499,0 -0.08049,0.02799 -0.13647,0.08398 H 1.33496 V 6.0415 L 1.16699,6.20947 V 5.95752 h -2.54053 v 0.94482 c 0.573898,0 1.112798,-0.08048 1.616704,-0.24145 C 0.74707,6.49992 1.16699,6.26546 1.50293,5.95752 M 0.873047,-4.22559 C 1.01302,-4.37956 1.17749,-4.57202 1.36646,-4.80298 c 0.18896,-0.23096 0.20646,-0.5284 0.05249,-0.89233 0,-0.05599 -0.014,-0.09798 -0.042,-0.12598 -0.02799,-0.02799 -0.04199,-0.06999 -0.04199,-0.12598 0.97982,0 1.72868,0.41293 2.24658,1.23877 H 3.22461 c -0.39193,0.11198 -0.62638,0.29745 -0.70337,0.5564 -0.07699,0.25895 -0.14347,0.5144 -0.19946,0.76636 v 0.31494 c 0,0.33594 -0.035,0.63338 -0.10498,0.89233 C 2.14681,-1.91951 1.90885,-1.72005 1.50293,-1.58008 1.139,-1.4821 0.806559,-1.52759 0.505615,-1.71655 0.204671,-1.90552 -0.00179036,-2.16097 -0.11377,-2.48291 l -0.083984,-0.08398 c -0.153971,-0.39193 -0.150472,-0.69637 0.010498,-0.91333 0.1609702,-0.21696 0.395427,-0.40943 0.703369,-0.5774 0.083985,-0.05599 0.150472,-0.09798 0.199463,-0.12597 0.048991,-0.028 0.101481,-0.042 0.157471,-0.042 m -2.666507,2.05762 c -0.23795,-0.83984 -0.14697,-1.6167 0.27295,-2.33057 0.41992,-0.71386 1.042808,-1.16878 1.868655,-1.36474 0.055989,-0.05599 0.174967,-0.08399 0.356933,-0.08399 0.05599,0.05599 0.097982,0.11898 0.125977,0.18897 0.027994,0.06999 0.069987,0.13297 0.125976,0.18896 0.027995,0.22396 0.006999,0.38843 -0.062988,0.49341 -0.069987,0.10498 -0.195964,0.22746 -0.37793,0.36743 -0.055989,0.05599 -0.097981,0.08399 -0.125976,0.08399 -0.027995,0 -0.069987,0.02799 -0.125977,0.08398 -0.111979,0.05599 -0.2484536,0.12948 -0.409424,0.22046 -0.16097,0.09098 -0.297444,0.21346 -0.409424,0.36743 -0.111979,0.15397 -0.195963,0.33244 -0.251953,0.5354 -0.055989,0.20297 -0.055989,0.43042 0,0.68238 v 0.25195 0.10498 c 0.167969,0.47591 0.489909,0.85034 0.965821,1.12329 0.475911,0.272951 0.98682,0.325441 1.53271,0.15747 0.30795,-0.08398 0.5494,-0.20646 0.72437,-0.36743 0.17497,-0.16097 0.29744,-0.33244 0.36743,-0.5144 0.06999,-0.18197 0.11198,-0.37443 0.12598,-0.5774 0.014,-0.20296 0.02099,-0.37443 0.02099,-0.5144 v -0.25195 c 0,-0.48991 0.16097,-0.76286 0.48291,-0.81885 0.16797,-0.09798 0.33594,-0.09798 0.50391,0 0.05599,0.05599 0.08398,0.11198 0.08398,0.16797 0,0.05599 0.028,0.11198 0.08399,0.16797 0.20996,0.82584 0.11198,1.5992 -0.29395,2.32006 C 3.38558,-0.76473 2.76969,-0.292318 1.94385,-0.0683594 1.146,0.127604 0.386637,0.026123 -0.334229,-0.372803 -1.05509,-0.771729 -1.5415,-1.37012 -1.79346,-2.16797 M 11.3501,14.251 c -0.14,0.112 -0.259,0.2274 -0.3569,0.3464 -0.098,0.119 -0.217,0.2485 -0.357,0.3884 -0.1539,0.168 -0.3079,0.3115 -0.4619,0.4305 -0.154,0.1189 -0.32892,0.2484 -0.52489,0.3884 L 6.54199,12.7393 c 0.40593,-0.224 0.73137,-0.4725 0.97632,-0.7454 0.24495,-0.273 0.47941,-0.5774 0.70337,-0.9133 l 3.12842,3.1704"
         fill-rule="evenodd"
         vector-effect="none" />
    </g>
    <g
       id="g16"
       font-style="normal"
       font-weight="400"
       font-size="7.8px"
       font-family="'MS Shell Dlg 2'"
       stroke="none"
       fill-opacity="1"
       fill="#6fa56c" />
  </g>
</svg>

<?xml version="1.0" encoding="UTF-8" standalone="no"?>
<svg width="11.2889mm" height="11.2889mm"
 viewBox="0 0 32 32"
 xmlns="http://www.w3.org/2000/svg" xmlns:xlink="http://www.w3.org/1999/xlink"  version="1.2" baseProfile="tiny">
<title>Qt SVG Document</title>
<desc>Generated with Qt</desc>
<defs>
</defs>
<g fill="none" stroke="black" stroke-width="1" fill-rule="evenodd" stroke-linecap="square" stroke-linejoin="bevel" >

<g fill="#6fa56c" fill-opacity="1" stroke="none" transform="matrix(1,0,0,1,0,0)"
font-family="MS Shell Dlg 2" font-size="7.8" font-weight="400" font-style="normal" 
>
<path vector-effect="non-scaling-stroke" fill-rule="evenodd" d="M37.2598,16 C37.2598,27.7415 27.7415,37.2598 16,37.2598 C4.25851,37.2598 -5.25984,27.7415 -5.25984,16 C-5.25984,4.25851 4.25851,-5.25984 16,-5.25984 C27.7415,-5.25984 37.2598,4.25851 37.2598,16 "/>
</g>

<g fill="#ffffff" fill-opacity="0.94902" stroke="none" transform="matrix(1,0,0,1,16,13.1654)"
font-family="MS Shell Dlg 2" font-size="7.8" font-weight="400" font-style="normal" 
>
<path vector-effect="none" fill-rule="evenodd" d="M7.31885,10.6816 C7.17887,10.8776 7.00741,11.0701 6.80444,11.259 C6.60148,11.448 6.38802,11.6125 6.16406,11.7524 L3.22461,8.83398 C3.02865,8.63802 2.79419,8.51904 2.52124,8.47705 C2.24829,8.43506 1.90535,8.41406 1.49243,8.41406 C1.07951,8.41406 0.572103,8.41406 -0.0297852,8.41406 C-0.631673,8.41406 -1.36654,8.33708 -2.23438,8.18311 C-3.52214,8.04313 -4.81689,7.6652 -6.11865,7.04932 C-7.42041,6.43343 -8.5472,5.64958 -9.49902,4.69775 C-10.3249,3.87191 -10.9618,2.97957 -11.4097,2.02075 C-11.8576,1.06193 -12.1165,0.103109 -12.1865,-0.855713 C-12.2565,-1.81453 -12.134,-2.73136 -11.8191,-3.6062 C-11.5042,-4.48104 -11.0037,-5.26139 -10.3179,-5.94727 C-9.74398,-6.52116 -9.0756,-6.95858 -8.31274,-7.25952 C-7.54989,-7.56047 -6.74504,-7.71794 -5.89819,-7.73193 C-5.05135,-7.74593 -4.20101,-7.60946 -3.34717,-7.32251 C-2.49333,-7.03556 -1.67448,-6.61214 -0.890625,-6.05225 C-1.32454,-5.7583 -1.65348,-5.45736 -1.87744,-5.14941 C-2.57731,-5.59733 -3.29818,-5.94027 -4.04004,-6.17822 L-4.04004,-6.13623 L-4.04004,-4.96045 L-1.96143,-4.96045 C-2.03141,-4.90446 -2.06641,-4.86247 -2.06641,-4.83447 C-2.06641,-4.80648 -2.0944,-4.76449 -2.15039,-4.7085 L-4.04004,-4.7085 L-4.04004,-2.25195 L-2.44434,-2.25195 L-2.44434,-2.08398 L-4.04004,-2.08398 L-4.04004,0.414551 L-1.5415,0.414551 L-1.5415,-0.404297 C-1.48551,-0.404297 -1.40153,-0.348307 -1.28955,-0.236328 L-1.28955,0.414551 L-0.197754,0.414551 C-0.0857747,0.47054 0.012207,0.512533 0.0961914,0.540527 C0.180176,0.568522 0.292155,0.610514 0.432129,0.666504 L-1.28955,0.666504 L-1.28955,3.16504 L1.16699,3.16504 L1.16699,0.666504 L1.33496,0.666504 L1.33496,3.16504 L2.51074,3.16504 C2.51074,2.2972 2.36377,1.43636 2.06982,0.58252 L2.15381,0.58252 C2.58773,0.414551 2.97266,0.211589 3.30859,-0.0263672 C3.46257,0.379557 3.56055,0.760986 3.60254,1.11792 C3.64453,1.47485 3.69352,1.84229 3.74951,2.22021 C3.86149,3.07406 3.91748,3.80892 3.91748,4.4248 C3.91748,5.04069 3.91748,5.56559 3.91748,5.99951 C3.91748,6.43343 3.94548,6.78687 4.00146,7.05981 C4.05745,7.33276 4.19043,7.56722 4.40039,7.76318 L7.31885,10.6816 M-1.37354,5.78955 L1.16699,5.78955 L1.16699,3.29102 L-1.28955,3.29102 L-1.37354,5.78955 M-4.04004,3.16504 L-1.5415,3.16504 L-1.5415,0.666504 L-4.04004,0.58252 L-4.04004,3.16504 M-4.04004,5.78955 L-1.5415,5.78955 L-1.5415,3.29102 L-4.04004,3.29102 L-4.04004,5.78955 M-4.20801,-6.22021 C-5.03385,-6.44417 -5.8667,-6.48617 -6.70654,-6.34619 L-6.70654,-4.96045 L-4.20801,-4.96045 L-4.20801,-6.22021 M-9.33105,0.414551 L-6.83252,0.414551 L-6.83252,-2.08398 L-9.33105,-2.08398 L-9.33105,0.414551 M-6.83252,-2.25195 L-6.83252,-4.7085 L-9.33105,-4.7085 L-9.33105,-2.25195 L-6.83252,-2.25195 M-6.83252,-4.96045 L-6.83252,-6.3042 C-7.84033,-6.13623 -8.67318,-5.71631 -9.33105,-5.04443 L-9.33105,-4.96045 L-6.83252,-4.96045 M-4.20801,0.414551 L-4.20801,-2.08398 L-6.70654,-2.08398 L-6.70654,0.414551 L-4.20801,0.414551 M-6.70654,0.58252 L-6.70654,3.08105 L-4.20801,3.16504 L-4.20801,0.666504 L-6.70654,0.58252 M-4.20801,-2.25195 L-4.20801,-4.7085 L-6.70654,-4.7085 L-6.70654,-2.25195 L-4.20801,-2.25195 M-6.70654,3.29102 L-6.70654,5.26465 C-6.32861,5.48861 -6.01367,5.66357 -5.76172,5.78955 L-4.20801,5.78955 L-4.20801,3.29102 L-6.70654,3.29102 M-5.40479,5.95752 C-5.18083,6.0415 -4.97437,6.12549 -4.7854,6.20947 C-4.59644,6.29346 -4.40397,6.36344 -4.20801,6.41943 L-4.20801,5.95752 L-5.40479,5.95752 M-9.66699,-4.7085 C-10.2689,-4.02262 -10.6398,-3.20378 -10.7798,-2.25195 L-9.58301,-2.25195 L-9.58301,-4.7085 L-9.66699,-4.7085 M-10.8218,-2.08398 C-10.9058,-1.23014 -10.8218,-0.369303 -10.5698,0.498535 L-10.5698,0.414551 L-9.58301,0.414551 L-9.58301,-2.08398 L-10.8218,-2.08398 M-10.5278,0.58252 C-10.1499,1.7583 -9.50602,2.8291 -8.59619,3.79492 C-8.30225,4.06087 -8.0118,4.30933 -7.72485,4.54028 C-7.43791,4.77124 -7.14046,4.9847 -6.83252,5.18066 L-6.83252,5.13867 L-6.83252,3.29102 L-8.97412,3.29102 C-9.0861,3.23503 -9.14209,3.16504 -9.14209,3.08105 L-6.83252,3.08105 L-6.83252,0.58252 L-9.33105,0.58252 L-9.33105,2.80811 L-9.58301,2.55615 L-9.58301,0.58252 L-10.5278,0.58252 M-4.04004,6.46143 C-3.60612,6.6154 -3.1827,6.72738 -2.76978,6.79736 C-2.35685,6.86735 -1.94743,6.90234 -1.5415,6.90234 L-1.5415,5.95752 L-4.04004,5.95752 L-4.04004,6.46143 M1.50293,5.95752 C2.07682,5.32764 2.39176,4.4388 2.44775,3.29102 L1.33496,3.29102 L1.33496,5.78955 L1.60791,5.78955 C1.60791,5.84554 1.59041,5.87354 1.55542,5.87354 C1.52043,5.87354 1.47493,5.90153 1.41895,5.95752 L1.33496,5.95752 L1.33496,6.0415 L1.16699,6.20947 L1.16699,5.95752 L-1.37354,5.95752 L-1.37354,6.90234 C-0.799642,6.90234 -0.260742,6.82186 0.243164,6.66089 C0.74707,6.49992 1.16699,6.26546 1.50293,5.95752 M0.873047,-4.22559 C1.01302,-4.37956 1.17749,-4.57202 1.36646,-4.80298 C1.55542,-5.03394 1.57292,-5.33138 1.41895,-5.69531 C1.41895,-5.7513 1.40495,-5.79329 1.37695,-5.82129 C1.34896,-5.84928 1.33496,-5.89128 1.33496,-5.94727 C2.31478,-5.94727 3.06364,-5.53434 3.58154,-4.7085 L3.22461,-4.7085 C2.83268,-4.59652 2.59823,-4.41105 2.52124,-4.1521 C2.44425,-3.89315 2.37777,-3.6377 2.32178,-3.38574 L2.32178,-3.0708 C2.32178,-2.73486 2.28678,-2.43742 2.2168,-2.17847 C2.14681,-1.91951 1.90885,-1.72005 1.50293,-1.58008 C1.139,-1.4821 0.806559,-1.52759 0.505615,-1.71655 C0.204671,-1.90552 -0.00179036,-2.16097 -0.11377,-2.48291 L-0.197754,-2.56689 C-0.351725,-2.95882 -0.348226,-3.26326 -0.187256,-3.48022 C-0.0262858,-3.69718 0.208171,-3.88965 0.516113,-4.05762 C0.600098,-4.11361 0.666585,-4.1556 0.715576,-4.18359 C0.764567,-4.21159 0.817057,-4.22559 0.873047,-4.22559 M-1.79346,-2.16797 C-2.03141,-3.00781 -1.94043,-3.78467 -1.52051,-4.49854 C-1.10059,-5.2124 -0.477702,-5.66732 0.348145,-5.86328 C0.404134,-5.91927 0.523112,-5.94727 0.705078,-5.94727 C0.761068,-5.89128 0.80306,-5.82829 0.831055,-5.7583 C0.859049,-5.68831 0.901042,-5.62533 0.957031,-5.56934 C0.985026,-5.34538 0.96403,-5.18091 0.894043,-5.07593 C0.824056,-4.97095 0.698079,-4.84847 0.516113,-4.7085 C0.460124,-4.65251 0.418132,-4.62451 0.390137,-4.62451 C0.362142,-4.62451 0.32015,-4.59652 0.26416,-4.54053 C0.152181,-4.48454 0.0157064,-4.41105 -0.145264,-4.32007 C-0.306234,-4.22909 -0.442708,-4.10661 -0.554688,-3.95264 C-0.666667,-3.79867 -0.750651,-3.6202 -0.806641,-3.41724 C-0.86263,-3.21427 -0.86263,-2.98682 -0.806641,-2.73486 L-0.806641,-2.48291 L-0.806641,-2.37793 C-0.638672,-1.90202 -0.316732,-1.52759 0.15918,-1.25464 C0.635091,-0.981689 1.146,-0.929199 1.69189,-1.09717 C1.99984,-1.18115 2.24129,-1.30363 2.41626,-1.4646 C2.59123,-1.62557 2.7137,-1.79704 2.78369,-1.979 C2.85368,-2.16097 2.89567,-2.35343 2.90967,-2.5564 C2.92367,-2.75936 2.93066,-2.93083 2.93066,-3.0708 L2.93066,-3.32275 C2.93066,-3.81266 3.09163,-4.08561 3.41357,-4.1416 C3.58154,-4.23958 3.74951,-4.23958 3.91748,-4.1416 C3.97347,-4.08561 4.00146,-4.02962 4.00146,-3.97363 C4.00146,-3.91764 4.02946,-3.86165 4.08545,-3.80566 C4.29541,-2.97982 4.19743,-2.20646 3.7915,-1.4856 C3.38558,-0.76473 2.76969,-0.292318 1.94385,-0.0683594 C1.146,0.127604 0.386637,0.026123 -0.334229,-0.372803 C-1.05509,-0.771729 -1.5415,-1.37012 -1.79346,-2.16797 M11.3501,14.251 C11.2101,14.363 11.0911,14.4784 10.9932,14.5974 C10.8952,14.7164 10.7762,14.8459 10.6362,14.9858 C10.4823,15.1538 10.3283,15.2973 10.1743,15.4163 C10.0203,15.5352 9.84538,15.6647 9.64941,15.8047 L6.54199,12.7393 C6.94792,12.5153 7.27336,12.2668 7.51831,11.9939 C7.76326,11.7209 7.99772,11.4165 8.22168,11.0806 L11.3501,14.251"/>
</g>

<g fill="#6fa56c" fill-opacity="1" stroke="none" transform="matrix(1,0,0,1,0,0)"
font-family="MS Shell Dlg 2" font-size="7.8" font-weight="400" font-style="normal" 
>
</g>
</g>
</svg>
